X: 13
T: Eavesdropper, The
Z: Makenzie
S: https://thesession.org/tunes/389#setting49429
R: jig
M: 6/8
L: 1/8
K: Gmaj
|:G2B BAG|Bdd dBG|cee dBG|AAA BGD|
G2B BAG|Bdd dBG|Aee dBG|1 BGF G3:|2 BGF GBd||
|:gfg afd|efg dBG|cee dBG|BAA ABd|
[1 gfg afd|efg dBG|cee dBA|BGF GBd:|
[2 g2b afd|efg dBG|cee dBA|BGF G3||

